X: 8
T:Muiñeira Popular (2)
M:6/8
L:1/8
Q:200
C:Trad
R:Muiñeira
B:Os Segredos da Gaita. FOXO
K:C
EF |: G2E F2D | B,2 D F2A | GAG FEF |
GEC- CEF | G2EF2D | B,2 D F2A | GAG FED |1
C3- CEF :|2 C3 GAG |: G2F FGF | F2E EFE | EDC DEF |
A2G GAG | G2F FGF |F2E EFE |EDC DED |1 C3 GAG :|2 C ||

